app/img/main-block-image-1.svg

<svg width="64" height="64" viewBox="0 0 64 64" fill="none" xmlns="http://www.w3.org/2000/svg">
<rect width="64" height="64" rx="18" fill="white"/>
<path d="M26.2497 29.3043C27.0177 29.3043 27.641 28.681 27.641 27.913V22.4869C27.641 20.0612 29.6146 18.0869 32.0403 18.0869C34.4661 18.0869 36.4403 20.0612 36.4403 22.4869V27.913C36.4403 28.681 37.0629 29.3043 37.8316 29.3043C38.5996 29.3043 39.2229 28.681 39.2229 27.913V22.4869C39.2236 18.5266 36.0014 15.3043 32.0403 15.3043C28.0807 15.3043 24.8584 18.5266 24.8584 22.4869V27.913C24.8584 28.681 25.4817 29.3043 26.2497 29.3043Z" fill="url(#paint0_linear)"/>
<path d="M47.9998 26.1781H40.6147V27.9131C40.6147 29.4477 39.3667 30.6957 37.8321 30.6957C36.2975 30.6957 35.0495 29.4477 35.0495 27.9131V26.1781H29.0328V27.9131C29.0328 29.4477 27.7848 30.6957 26.2502 30.6957C24.7156 30.6957 23.4676 29.4477 23.4676 27.9131V26.1781H15.9998C15.6158 26.1781 15.3785 26.4807 15.4697 26.8536L20.3379 46.6776C20.6314 47.792 21.8043 48.6957 22.9563 48.6957H41.0432C42.1966 48.6957 43.3681 47.792 43.6631 46.6776L48.5299 26.8536C48.621 26.48 48.3845 26.1781 47.9998 26.1781Z" fill="url(#paint1_linear)"/>
<path d="M29.635 33.6696C29.635 33.1315 30.0708 32.6957 30.6089 32.6957C31.147 32.6957 31.5828 33.1315 31.5828 33.6696V38.5044L31.5828 37.5652C31.5828 37.0272 32.0187 36.5913 32.5568 36.5913C33.0948 36.5913 33.5307 37.0272 33.5307 37.5652V38.7315C33.5394 38.2012 33.972 37.0783 34.5044 37.0783C35.0423 37.0783 35.4783 37.5143 35.4784 38.0522C35.4784 38.0522 35.507 38.7764 35.571 38.8197C35.7269 38.4894 36.0629 37.5652 36.4523 37.5652C36.9902 37.5652 37.4262 38.0013 37.4262 38.5392V43.4087C37.4262 44.4844 36.5541 45.3566 35.4784 45.3566H32.2226C31.1893 45.3566 30.1983 44.946 29.4679 44.2156L27.9306 42.6783L25.7393 41.6976C25.7428 40.7676 26.4715 40.487 27.2001 40.487C27.8278 40.487 28.3922 40.5849 29.6349 41.2174L29.635 33.6696Z" fill="white"/>
<defs>
<linearGradient id="paint0_linear" x1="32.0407" y1="15.3043" x2="32.0407" y2="29.3043" gradientUnits="userSpaceOnUse">
<stop stop-color="#EF8080"/>
<stop offset="1" stop-color="#F0145A"/>
</linearGradient>
<linearGradient id="paint1_linear" x1="31.9998" y1="26.1781" x2="31.9998" y2="48.6957" gradientUnits="userSpaceOnUse">
<stop stop-color="#EF8080"/>
<stop offset="1" stop-color="#F0145A"/>
</linearGradient>
</defs>
</svg>

<svg width="64" height="64" fill="none" xmlns="http://www.w3.org/2000/svg"><rect width="64" height="64" rx="18" fill="#fff"/><path d="M26.25 29.304c.768 0 1.391-.623 1.391-1.391v-5.426c0-2.426 1.974-4.4 4.4-4.4 2.425 0 4.4 1.974 4.4 4.4v5.426a1.391 1.391 0 002.782 0v-5.426c0-3.96-3.222-7.183-7.183-7.183-3.96 0-7.182 3.223-7.182 7.183v5.426c0 .768.624 1.391 1.392 1.391z" fill="url(#paint0_linear)"/><path d="M48 26.178h-7.385v1.735a2.785 2.785 0 01-2.783 2.783 2.785 2.785 0 01-2.782-2.783v-1.735h-6.017v1.735a2.785 2.785 0 01-2.783 2.783 2.785 2.785 0 01-2.782-2.783v-1.735H16c-.384 0-.621.303-.53.676l4.868 19.824c.293 1.114 1.466 2.018 2.618 2.018h18.087c1.154 0 2.325-.904 2.62-2.018l4.867-19.824c.091-.374-.145-.676-.53-.676z" fill="url(#paint1_linear)"/><path d="M29.635 33.67a.974.974 0 111.948 0v4.834-.939a.974.974 0 111.948 0v1.166c.008-.53.441-1.653.973-1.653.538 0 .974.436.974.974 0 0 .029.724.093.768.156-.33.492-1.255.881-1.255.538 0 .974.436.974.974v4.87a1.948 1.948 0 01-1.948 1.948h-3.255a3.896 3.896 0 01-2.755-1.141l-1.537-1.538-2.192-.98c.004-.93.732-1.211 1.461-1.211.628 0 1.192.098 2.435.73V33.67z" fill="#fff"/><defs><linearGradient id="paint0_linear" x1="32.041" y1="15.304" x2="32.041" y2="29.304" gradientUnits="userSpaceOnUse"><stop stop-color="#EF8080"/><stop offset="1" stop-color="#F0145A"/></linearGradient><linearGradient id="paint1_linear" x1="32" y1="26.178" x2="32" y2="48.696" gradientUnits="userSpaceOnUse"><stop stop-color="#EF8080"/><stop offset="1" stop-color="#F0145A"/></linearGradient></defs></svg>
